X:1
T:What Was Your Name in the States
M:6/8
L:1/8
K:A
 E| AAA A2 B/2G/2| A3 z2 A/2B/2| ccc ddB| c3 z2 A/2B/2| ccc B2 B| AAA G2 G|\
 FFF GGE| A4- A||
